ARRI_linear2logc_EI800.cube
LUT_1D_SIZE 4096

0.000000 0.000000 0.000000
0.000000 0.000000 0.000000
0.000000 0.000000 0.000000
0.000000 0.000000 0.000000
0.000000 0.000000 0.000000
0.000000 0.000000 0.000000
0.000000 0.000000 0.000000
0.000000 0.000000 0.000000
0.000000 0.000000 0.000000
0.000000 0.000000 0.000000
0.000000 0.000000 0.000000
0.000000 0.000000 0.000000
0.000000 0.000000 0.000000
0.000000 0.000000 0.000000
0.000000 0.000000 0.000000
0.045624 0.045624 0.045624
0.092805 0.092805 0.092805
0.140002 0.140002 0.140002
0.181842 0.181842 0.181842
0.212116 0.212116 0.212116
0.235691 0.235691 0.235691
0.255024 0.255024 0.255024
0.271382 0.271382 0.271382
0.285588 0.285588 0.285588
0.298131 0.298131 0.298131
0.309361 0.309361 0.309361
0.319524 0.319524 0.319524
0.328801 0.328801 0.328801
0.337346 0.337346 0.337346
0.345266 0.345266 0.345266
0.352636 0.352636 0.352636
0.359533 0.359533 0.359533
0.366018 0.366018 0.366018
0.372122 0.372122 0.372122
0.377905 0.377905 0.377905
0.383398 0.383398 0.383398
0.388617 0.388617 0.388617
0.393591 0.393591 0.393591
0.398352 0.398352 0.398352
0.402899 0.402899 0.402899
0.407279 0.407279 0.407279
0.411475 0.411475 0.411475
0.415518 0.415518 0.415518
0.419409 0.419409 0.419409
0.423163 0.423163 0.423163
0.426795 0.426795 0.426795
0.430304 0.430304 0.430304
0.433707 0.433707 0.433707
0.437003 0.437003 0.437003
0.440208 0.440208 0.440208
0.443305 0.443305 0.443305
0.446326 0.446326 0.446326
0.449256 0.449256 0.449256
0.452125 0.452125 0.452125
0.454902 0.454902 0.454902
0.457618 0.457618 0.457618
0.460258 0.460258 0.460258
0.462852 0.462852 0.462852
0.465370 0.465370 0.465370
0.467826 0.467826 0.467826
0.470237 0.470237 0.470237
0.472602 0.472602 0.472602
0.474907 0.474907 0.474907
0.477165 0.477165 0.477165
0.479362 0.479362 0.479362
0.481529 0.481529 0.481529
0.483650 0.483650 0.483650
0.485740 0.485740 0.485740
0.487785 0.487785 0.487785
0.489784 0.489784 0.489784
0.491752 0.491752 0.491752
0.493690 0.493690 0.493690
0.495583 0.495583 0.495583
0.497444 0.497444 0.497444
0.499275 0.499275 0.499275
0.501076 0.501076 0.501076
0.502861 0.502861 0.502861
0.504601 0.504601 0.504601
0.506310 0.506310 0.506310
0.508003 0.508003 0.508003
0.509667 0.509667 0.509667
0.511299 0.511299 0.511299
0.512917 0.512917 0.512917
0.514504 0.514504 0.514504
0.516075 0.516075 0.516075
0.517617 0.517617 0.517617
0.519127 0.519127 0.519127
0.520638 0.520638 0.520638
0.522118 0.522118 0.522118
0.523568 0.523568 0.523568
0.525017 0.525017 0.525017
0.526436 0.526436 0.526436
0.527840 0.527840 0.527840
0.529213 0.529213 0.529213
0.530587 0.530587 0.530587
0.531930 0.531930 0.531930
0.533272 0.533272 0.533272
0.534585 0.534585 0.534585
0.535882 0.535882 0.535882
0.537163 0.537163 0.537163
0.538430 0.538430 0.538430
0.539696 0.539696 0.539696
0.540932 0.540932 0.540932
0.542153 0.542153 0.542153
0.543374 0.543374 0.543374
0.544564 0.544564 0.544564
0.545754 0.545754 0.545754
0.546929 0.546929 0.546929
0.548089 0.548089 0.548089
0.549233 0.549233 0.549233
0.550362 0.550362 0.550362
0.551492 0.551492 0.551492
0.552605 0.552605 0.552605
0.553704 0.553704 0.553704
0.554788 0.554788 0.554788
0.555871 0.555871 0.555871
0.556939 0.556939 0.556939
0.557992 0.557992 0.557992
0.559045 0.559045 0.559045
0.560082 0.560082 0.560082
0.561105 0.561105 0.561105
0.562127 0.562127 0.562127
0.563134 0.563134 0.563134
0.564126 0.564126 0.564126
0.565118 0.565118 0.565118
0.566094 0.566094 0.566094
0.567071 0.567071 0.567071
0.568032 0.568032 0.568032
0.568978 0.568978 0.568978
0.569924 0.569924 0.569924
0.570871 0.570871 0.570871
0.571786 0.571786 0.571786
0.572717 0.572717 0.572717
0.573632 0.573632 0.573632
0.574533 0.574533 0.574533
0.575433 0.575433 0.575433
0.576318 0.576318 0.576318
0.577203 0.577203 0.577203
0.578073 0.578073 0.578073
0.578943 0.578943 0.578943
0.579812 0.579812 0.579812
0.580667 0.580667 0.580667
0.581521 0.581521 0.581521
0.582361 0.582361 0.582361
0.583185 0.583185 0.583185
0.584024 0.584024 0.584024
0.584848 0.584848 0.584848
0.585657 0.585657 0.585657
0.586465 0.586465 0.586465
0.587274 0.587274 0.587274
0.588067 0.588067 0.588067
0.588861 0.588861 0.588861
0.589639 0.589639 0.589639
0.590433 0.590433 0.590433
0.591196 0.591196 0.591196
0.591974 0.591974 0.591974
0.592737 0.592737 0.592737
0.593500 0.593500 0.593500
0.594247 0.594247 0.594247
0.594995 0.594995 0.594995
0.595743 0.595743 0.595743
0.596475 0.596475 0.596475
0.597208 0.597208 0.597208
0.597940 0.597940 0.597940
0.598657 0.598657 0.598657
0.599374 0.599374 0.599374
0.600092 0.600092 0.600092
0.600793 0.600793 0.600793
0.601495 0.601495 0.601495
0.602197 0.602197 0.602197
0.602899 0.602899 0.602899
0.603586 0.603586 0.603586
0.604273 0.604273 0.604273
0.604944 0.604944 0.604944
0.605631 0.605631 0.605631
0.606302 0.606302 0.606302
0.606973 0.606973 0.606973
0.607630 0.607630 0.607630
0.608286 0.608286 0.608286
0.608942 0.608942 0.608942
0.609598 0.609598 0.609598
0.610254 0.610254 0.610254
0.610895 0.610895 0.610895
0.611536 0.611536 0.611536
0.612177 0.612177 0.612177
0.612802 0.612802 0.612802
0.613428 0.613428 0.613428
0.614054 0.614054 0.614054
0.614679 0.614679 0.614679
0.615305 0.615305 0.615305
0.615915 0.615915 0.615915
0.616526 0.616526 0.616526
0.617136 0.617136 0.617136
0.617746 0.617746 0.617746
0.618341 0.618341 0.618341
0.618936 0.618936 0.618936
0.619532 0.619532 0.619532
0.620127 0.620127 0.620127
0.620706 0.620706 0.620706
0.621302 0.621302 0.621302
0.621881 0.621881 0.621881
0.622461 0.622461 0.622461
0.623026 0.623026 0.623026
0.623606 0.623606 0.623606
0.624170 0.624170 0.624170
0.624735 0.624735 0.624735
0.625299 0.625299 0.625299
0.625864 0.625864 0.625864
0.626429 0.626429 0.626429
0.626978 0.626978 0.626978
0.627527 0.627527 0.627527
0.628077 0.628077 0.628077
0.628626 0.628626 0.628626
0.629160 0.629160 0.629160
0.629709 0.629709 0.629709
0.630243 0.630243 0.630243
0.630777 0.630777 0.630777
0.631312 0.631312 0.631312
0.631846 0.631846 0.631846
0.632364 0.632364 0.632364
0.632898 0.632898 0.632898
0.633417 0.633417 0.633417
0.633936 0.633936 0.633936
0.634455 0.634455 0.634455
0.634974 0.634974 0.634974
0.635477 0.635477 0.635477
0.635996 0.635996 0.635996
0.636500 0.636500 0.636500
0.637003 0.637003 0.637003
0.637507 0.637507 0.637507
0.638010 0.638010 0.638010
0.638499 0.638499 0.638499
0.639002 0.639002 0.639002
0.639490 0.639490 0.639490
0.639979 0.639979 0.639979
0.640467 0.640467 0.640467
0.640955 0.640955 0.640955
0.641444 0.641444 0.641444
0.641932 0.641932 0.641932
0.642405 0.642405 0.642405
0.642878 0.642878 0.642878
0.643366 0.643366 0.643366
0.643839 0.643839 0.643839
0.644312 0.644312 0.644312
0.644770 0.644770 0.644770
0.645243 0.645243 0.645243
0.645716 0.645716 0.645716
0.646174 0.646174 0.646174
0.646632 0.646632 0.646632
0.647089 0.647089 0.647089
0.647547 0.647547 0.647547
0.648005 0.648005 0.648005
0.648463 0.648463 0.648463
0.648920 0.648920 0.648920
0.649363 0.649363 0.649363
0.649805 0.649805 0.649805
0.650263 0.650263 0.650263
0.650706 0.650706 0.650706
0.651148 0.651148 0.651148
0.651591 0.651591 0.651591
0.652018 0.652018 0.652018
0.652461 0.652461 0.652461
0.652903 0.652903 0.652903
0.653330 0.653330 0.653330
0.653758 0.653758 0.653758
0.654185 0.654185 0.654185
0.654627 0.654627 0.654627
0.655055 0.655055 0.655055
0.655467 0.655467 0.655467
0.655894 0.655894 0.655894
0.656321 0.656321 0.656321
0.656733 0.656733 0.656733
0.657160 0.657160 0.657160
0.657572 0.657572 0.657572
0.657984 0.657984 0.657984
0.658396 0.658396 0.658396
0.658808 0.658808 0.658808
0.659220 0.659220 0.659220
0.659632 0.659632 0.659632
0.660044 0.660044 0.660044
0.660441 0.660441 0.660441
0.660853 0.660853 0.660853
0.661250 0.661250 0.661250
0.661646 0.661646 0.661646
0.662058 0.662058 0.662058
0.662455 0.662455 0.662455
0.662852 0.662852 0.662852
0.663249 0.663249 0.663249
0.663645 0.663645 0.663645
0.664027 0.664027 0.664027
0.664424 0.664424 0.664424
0.664805 0.664805 0.664805
0.665202 0.665202 0.665202
0.665583 0.665583 0.665583
0.665965 0.665965 0.665965
0.666361 0.666361 0.666361
0.666743 0.666743 0.666743
0.667124 0.667124 0.667124
0.667506 0.667506 0.667506
0.667872 0.667872 0.667872
0.668254 0.668254 0.668254
0.668635 0.668635 0.668635
0.669001 0.669001 0.669001
0.669383 0.669383 0.669383
0.669749 0.669749 0.669749
0.670115 0.670115 0.670115
0.670497 0.670497 0.670497
0.670863 0.670863 0.670863
0.671229 0.671229 0.671229
0.671595 0.671595 0.671595
0.671962 0.671962 0.671962
0.672313 0.672313 0.672313
0.672679 0.672679 0.672679
0.673045 0.673045 0.673045
0.673396 0.673396 0.673396
0.673762 0.673762 0.673762
0.674113 0.674113 0.674113
0.674479 0.674479 0.674479
0.674830 0.674830 0.674830
0.675181 0.675181 0.675181
0.675532 0.675532 0.675532
0.675883 0.675883 0.675883
0.676234 0.676234 0.676234
0.676585 0.676585 0.676585
0.676936 0.676936 0.676936
0.677272 0.677272 0.677272
0.677623 0.677623 0.677623
0.677974 0.677974 0.677974
0.678309 0.678309 0.678309
0.678660 0.678660 0.678660
0.678996 0.678996 0.678996
0.679332 0.679332 0.679332
0.679683 0.679683 0.679683
0.680018 0.680018 0.680018
0.680354 0.680354 0.680354
0.680690 0.680690 0.680690
0.681025 0.681025 0.681025
0.681361 0.681361 0.681361
0.681682 0.681682 0.681682
0.682017 0.682017 0.682017
0.682353 0.682353 0.682353
0.682673 0.682673 0.682673
0.683009 0.683009 0.683009
0.683330 0.683330 0.683330
0.683665 0.683665 0.683665
0.683986 0.683986 0.683986
0.684321 0.684321 0.684321
0.684642 0.684642 0.684642
0.684962 0.684962 0.684962
0.685283 0.685283 0.685283
0.685603 0.685603 0.685603
0.685924 0.685924 0.685924
0.686244 0.686244 0.686244
0.686564 0.686564 0.686564
0.686885 0.686885 0.686885
0.687190 0.687190 0.687190
0.687510 0.687510 0.687510
0.687816 0.687816 0.687816
0.688136 0.688136 0.688136
0.688457 0.688457 0.688457
0.688762 0.688762 0.688762
0.689067 0.689067 0.689067
0.689387 0.689387 0.689387
0.689693 0.689693 0.689693
0.689998 0.689998 0.689998
0.690303 0.690303 0.690303
0.690608 0.690608 0.690608
0.690913 0.690913 0.690913
0.691218 0.691218 0.691218
0.691524 0.691524 0.691524
0.691829 0.691829 0.691829
0.692134 0.692134 0.692134
0.692424 0.692424 0.692424
0.692729 0.692729 0.692729
0.693034 0.693034 0.693034
0.693324 0.693324 0.693324
0.693629 0.693629 0.693629
0.693919 0.693919 0.693919
0.694224 0.694224 0.694224
0.694514 0.694514 0.694514
0.694804 0.694804 0.694804
0.695109 0.695109 0.695109
0.695399 0.695399 0.695399
0.695689 0.695689 0.695689
0.695979 0.695979 0.695979
0.696269 0.696269 0.696269
0.696559 0.696559 0.696559
0.696849 0.696849 0.696849
0.697139 0.697139 0.697139
0.697429 0.697429 0.697429
0.697704 0.697704 0.697704
0.697993 0.697993 0.697993
0.698283 0.698283 0.698283
0.698558 0.698558 0.698558
0.698848 0.698848 0.698848
0.699138 0.699138 0.699138
0.699413 0.699413 0.699413
0.699702 0.699702 0.699702
0.699977 0.699977 0.699977
0.700252 0.700252 0.700252
0.700542 0.700542 0.700542
0.700816 0.700816 0.700816
0.701091 0.701091 0.701091
0.701366 0.701366 0.701366
0.701640 0.701640 0.701640
0.701915 0.701915 0.701915
0.702190 0.702190 0.702190
0.702464 0.702464 0.702464
0.702739 0.702739 0.702739
0.703014 0.703014 0.703014
0.703288 0.703288 0.703288
0.703563 0.703563 0.703563
0.703822 0.703822 0.703822
0.704097 0.704097 0.704097
0.704372 0.704372 0.704372
0.704631 0.704631 0.704631
0.704906 0.704906 0.704906
0.705165 0.705165 0.705165
0.705440 0.705440 0.705440
0.705699 0.705699 0.705699
0.705974 0.705974 0.705974
0.706233 0.706233 0.706233
0.706493 0.706493 0.706493
0.706767 0.706767 0.706767
0.707027 0.707027 0.707027
0.707286 0.707286 0.707286
0.707546 0.707546 0.707546
0.707805 0.707805 0.707805
0.708064 0.708064 0.708064
0.708324 0.708324 0.708324
0.708583 0.708583 0.708583
0.708843 0.708843 0.708843
0.709102 0.709102 0.709102
0.709361 0.709361 0.709361
0.709621 0.709621 0.709621
0.709880 0.709880 0.709880
0.710124 0.710124 0.710124
0.710384 0.710384 0.710384
0.710643 0.710643 0.710643
0.710887 0.710887 0.710887
0.711147 0.711147 0.711147
0.711391 0.711391 0.711391
0.711650 0.711650 0.711650
0.711894 0.711894 0.711894
0.712154 0.712154 0.712154
0.712398 0.712398 0.712398
0.712642 0.712642 0.712642
0.712902 0.712902 0.712902
0.713146 0.713146 0.713146
0.713390 0.713390 0.713390
0.713634 0.713634 0.713634
0.713893 0.713893 0.713893
0.714137 0.714137 0.714137
0.714382 0.714382 0.714382
0.714626 0.714626 0.714626
0.714870 0.714870 0.714870
0.715114 0.715114 0.715114
0.715358 0.715358 0.715358
0.715602 0.715602 0.715602
0.715831 0.715831 0.715831
0.716075 0.716075 0.716075
0.716320 0.716320 0.716320
0.716564 0.716564 0.716564
0.716808 0.716808 0.716808
0.717037 0.717037 0.717037
0.717281 0.717281 0.717281
0.717525 0.717525 0.717525
0.717754 0.717754 0.717754
0.717998 0.717998 0.717998
0.718227 0.718227 0.718227
0.718471 0.718471 0.718471
0.718700 0.718700 0.718700
0.718929 0.718929 0.718929
0.719173 0.719173 0.719173
0.719402 0.719402 0.719402
0.719646 0.719646 0.719646
0.719875 0.719875 0.719875
0.720104 0.720104 0.720104
0.720333 0.720333 0.720333
0.720562 0.720562 0.720562
0.720806 0.720806 0.720806
0.721035 0.721035 0.721035
0.721263 0.721263 0.721263
0.721492 0.721492 0.721492
0.721721 0.721721 0.721721
0.721950 0.721950 0.721950
0.722179 0.722179 0.722179
0.722408 0.722408 0.722408
0.722637 0.722637 0.722637
0.722850 0.722850 0.722850
0.723079 0.723079 0.723079
0.723308 0.723308 0.723308
0.723537 0.723537 0.723537
0.723766 0.723766 0.723766
0.723980 0.723980 0.723980
0.724208 0.724208 0.724208
0.724437 0.724437 0.724437
0.724651 0.724651 0.724651
0.724880 0.724880 0.724880
0.725093 0.725093 0.725093
0.725322 0.725322 0.725322
0.725536 0.725536 0.725536
0.725765 0.725765 0.725765
0.725978 0.725978 0.725978
0.726207 0.726207 0.726207
0.726421 0.726421 0.726421
0.726635 0.726635 0.726635
0.726864 0.726864 0.726864
0.727077 0.727077 0.727077
0.727291 0.727291 0.727291
0.727504 0.727504 0.727504
0.727733 0.727733 0.727733
0.727947 0.727947 0.727947
0.728161 0.728161 0.728161
0.728374 0.728374 0.728374
0.728588 0.728588 0.728588
0.728801 0.728801 0.728801
0.729015 0.729015 0.729015
0.729229 0.729229 0.729229
0.729442 0.729442 0.729442
0.729656 0.729656 0.729656
0.729870 0.729870 0.729870
0.730083 0.730083 0.730083
0.730297 0.730297 0.730297
0.730510 0.730510 0.730510
0.730709 0.730709 0.730709
0.730922 0.730922 0.730922
0.731136 0.731136 0.731136
0.731350 0.731350 0.731350
0.731548 0.731548 0.731548
0.731762 0.731762 0.731762
0.731975 0.731975 0.731975
0.732174 0.732174 0.732174
0.732387 0.732387 0.732387
0.732586 0.732586 0.732586
0.732799 0.732799 0.732799
0.732998 0.732998 0.732998
0.733211 0.733211 0.733211
0.733410 0.733410 0.733410
0.733623 0.733623 0.733623
0.733822 0.733822 0.733822
0.734035 0.734035 0.734035
0.734234 0.734234 0.734234
0.734432 0.734432 0.734432
0.734646 0.734646 0.734646
0.734844 0.734844 0.734844
0.735042 0.735042 0.735042
0.735241 0.735241 0.735241
0.735454 0.735454 0.735454
0.735653 0.735653 0.735653
0.735851 0.735851 0.735851
0.736049 0.736049 0.736049
0.736248 0.736248 0.736248
0.736446 0.736446 0.736446
0.736645 0.736645 0.736645
0.736843 0.736843 0.736843
0.737041 0.737041 0.737041
0.737240 0.737240 0.737240
0.737438 0.737438 0.737438
0.737636 0.737636 0.737636
0.737835 0.737835 0.737835
0.738033 0.738033 0.738033
0.738231 0.738231 0.738231
0.738430 0.738430 0.738430
0.738628 0.738628 0.738628
0.738827 0.738827 0.738827
0.739010 0.739010 0.739010
0.739208 0.739208 0.739208
0.739406 0.739406 0.739406
0.739590 0.739590 0.739590
0.739788 0.739788 0.739788
0.739986 0.739986 0.739986
0.740169 0.740169 0.740169
0.740368 0.740368 0.740368
0.740566 0.740566 0.740566
0.740749 0.740749 0.740749
0.740948 0.740948 0.740948
0.741131 0.741131 0.741131
0.741329 0.741329 0.741329
0.741512 0.741512 0.741512
0.741711 0.741711 0.741711
0.741894 0.741894 0.741894
0.742092 0.742092 0.742092
0.742275 0.742275 0.742275
0.742458 0.742458 0.742458
0.742657 0.742657 0.742657
0.742840 0.742840 0.742840
0.743023 0.743023 0.743023
0.743221 0.743221 0.743221
0.743404 0.743404 0.743404
0.743587 0.743587 0.743587
0.743771 0.743771 0.743771
0.743969 0.743969 0.743969
0.744152 0.744152 0.744152
0.744335 0.744335 0.744335
0.744518 0.744518 0.744518
0.744701 0.744701 0.744701
0.744884 0.744884 0.744884
0.745068 0.745068 0.745068
0.745251 0.745251 0.745251
0.745434 0.745434 0.745434
0.745632 0.745632 0.745632
0.745800 0.745800 0.745800
0.745983 0.745983 0.745983
0.746166 0.746166 0.746166
0.746349 0.746349 0.746349
0.746532 0.746532 0.746532
0.746715 0.746715 0.746715
0.746899 0.746899 0.746899
0.747082 0.747082 0.747082
0.747265 0.747265 0.747265
0.747448 0.747448 0.747448
0.747616 0.747616 0.747616
0.747799 0.747799 0.747799
0.747982 0.747982 0.747982
0.748165 0.748165 0.748165
0.748333 0.748333 0.748333
0.748516 0.748516 0.748516
0.748699 0.748699 0.748699
0.748867 0.748867 0.748867
0.749050 0.749050 0.749050
0.749233 0.749233 0.749233
0.749401 0.749401 0.749401
0.749584 0.749584 0.749584
0.749752 0.749752 0.749752
0.749935 0.749935 0.749935
0.750103 0.750103 0.750103
0.750286 0.750286 0.750286
0.750454 0.750454 0.750454
0.750637 0.750637 0.750637
0.750805 0.750805 0.750805
0.750988 0.750988 0.750988
0.751156 0.751156 0.751156
0.751339 0.751339 0.751339
0.751507 0.751507 0.751507
0.751675 0.751675 0.751675
0.751858 0.751858 0.751858
0.752026 0.752026 0.752026
0.752193 0.752193 0.752193
0.752361 0.752361 0.752361
0.752544 0.752544 0.752544
0.752712 0.752712 0.752712
0.752880 0.752880 0.752880
0.753048 0.753048 0.753048
0.753231 0.753231 0.753231
0.753399 0.753399 0.753399
0.753567 0.753567 0.753567
0.753735 0.753735 0.753735
0.753902 0.753902 0.753902
0.754070 0.754070 0.754070
0.754238 0.754238 0.754238
0.754406 0.754406 0.754406
0.754589 0.754589 0.754589
0.754757 0.754757 0.754757
0.754925 0.754925 0.754925
0.755093 0.755093 0.755093
0.755261 0.755261 0.755261
0.755428 0.755428 0.755428
0.755581 0.755581 0.755581
0.755749 0.755749 0.755749
0.755917 0.755917 0.755917
0.756085 0.756085 0.756085
0.756252 0.756252 0.756252
0.756420 0.756420 0.756420
0.756588 0.756588 0.756588
0.756756 0.756756 0.756756
0.756909 0.756909 0.756909
0.757076 0.757076 0.757076
0.757244 0.757244 0.757244
0.757412 0.757412 0.757412
0.757580 0.757580 0.757580
0.757733 0.757733 0.757733
0.757900 0.757900 0.757900
0.758068 0.758068 0.758068
0.758221 0.758221 0.758221
0.758389 0.758389 0.758389
0.758556 0.758556 0.758556
0.758709 0.758709 0.758709
0.758877 0.758877 0.758877
0.759045 0.759045 0.759045
0.759197 0.759197 0.759197
0.759365 0.759365 0.759365
0.759518 0.759518 0.759518
0.759686 0.759686 0.759686
0.759838 0.759838 0.759838
0.760006 0.760006 0.760006
0.760159 0.760159 0.760159
0.760327 0.760327 0.760327
0.760479 0.760479 0.760479
0.760647 0.760647 0.760647
0.760800 0.760800 0.760800
0.760967 0.760967 0.760967
0.761120 0.761120 0.761120
0.761273 0.761273 0.761273
0.761440 0.761440 0.761440
0.761593 0.761593 0.761593
0.761746 0.761746 0.761746
0.761913 0.761913 0.761913
0.762066 0.762066 0.762066
0.762219 0.762219 0.762219
0.762387 0.762387 0.762387
0.762539 0.762539 0.762539
0.762692 0.762692 0.762692
0.762844 0.762844 0.762844
0.763012 0.763012 0.763012
0.763165 0.763165 0.763165
0.763317 0.763317 0.763317
0.763470 0.763470 0.763470
0.763622 0.763622 0.763622
0.763775 0.763775 0.763775
0.763943 0.763943 0.763943
0.764096 0.764096 0.764096
0.764248 0.764248 0.764248
0.764401 0.764401 0.764401
0.764553 0.764553 0.764553
0.764706 0.764706 0.764706
0.764858 0.764858 0.764858
0.765011 0.765011 0.765011
0.765164 0.765164 0.765164
0.765316 0.765316 0.765316
0.765469 0.765469 0.765469
0.765621 0.765621 0.765621
0.765774 0.765774 0.765774
0.765927 0.765927 0.765927
0.766079 0.766079 0.766079
0.766232 0.766232 0.766232
0.766384 0.766384 0.766384
0.766537 0.766537 0.766537
0.766674 0.766674 0.766674
0.766827 0.766827 0.766827
0.766979 0.766979 0.766979
0.767132 0.767132 0.767132
0.767285 0.767285 0.767285
0.767437 0.767437 0.767437
0.767575 0.767575 0.767575
0.767727 0.767727 0.767727
0.767880 0.767880 0.767880
0.768032 0.768032 0.768032
0.768170 0.768170 0.768170
0.768322 0.768322 0.768322
0.768475 0.768475 0.768475
0.768627 0.768627 0.768627
0.768765 0.768765 0.768765
0.768917 0.768917 0.768917
0.769070 0.769070 0.769070
0.769207 0.769207 0.769207
0.769360 0.769360 0.769360
0.769497 0.769497 0.769497
0.769650 0.769650 0.769650
0.769802 0.769802 0.769802
0.769940 0.769940 0.769940
0.770092 0.770092 0.770092
0.770230 0.770230 0.770230
0.770382 0.770382 0.770382
0.770520 0.770520 0.770520
0.770672 0.770672 0.770672
0.770809 0.770809 0.770809
0.770962 0.770962 0.770962
0.771099 0.771099 0.771099
0.771252 0.771252 0.771252
0.771389 0.771389 0.771389
0.771542 0.771542 0.771542
0.771679 0.771679 0.771679
0.771832 0.771832 0.771832
0.771969 0.771969 0.771969
0.772107 0.772107 0.772107
0.772259 0.772259 0.772259
0.772396 0.772396 0.772396
0.772534 0.772534 0.772534
0.772686 0.772686 0.772686
0.772824 0.772824 0.772824
0.772961 0.772961 0.772961
0.773114 0.773114 0.773114
0.773251 0.773251 0.773251
0.773388 0.773388 0.773388
0.773541 0.773541 0.773541
0.773678 0.773678 0.773678
0.773816 0.773816 0.773816
0.773953 0.773953 0.773953
0.774090 0.774090 0.774090
0.774243 0.774243 0.774243
0.774380 0.774380 0.774380
0.774517 0.774517 0.774517
0.774655 0.774655 0.774655
0.774792 0.774792 0.774792
0.774929 0.774929 0.774929
0.775082 0.775082 0.775082
0.775219 0.775219 0.775219
0.775357 0.775357 0.775357
0.775494 0.775494 0.775494
0.775631 0.775631 0.775631
0.775769 0.775769 0.775769
0.775906 0.775906 0.775906
0.776043 0.776043 0.776043
0.776181 0.776181 0.776181
0.776318 0.776318 0.776318
0.776455 0.776455 0.776455
0.776593 0.776593 0.776593
0.776730 0.776730 0.776730
0.776867 0.776867 0.776867
0.777005 0.777005 0.777005
0.777142 0.777142 0.777142
0.777279 0.777279 0.777279
0.777417 0.777417 0.777417
0.777554 0.777554 0.777554
0.777691 0.777691 0.777691
0.777829 0.777829 0.777829
0.777966 0.777966 0.777966
0.778103 0.778103 0.778103
0.778225 0.778225 0.778225
0.778363 0.778363 0.778363
0.778500 0.778500 0.778500
0.778637 0.778637 0.778637
0.778775 0.778775 0.778775
0.778912 0.778912 0.778912
0.779034 0.779034 0.779034
0.779171 0.779171 0.779171
0.779309 0.779309 0.779309
0.779446 0.779446 0.779446
0.779568 0.779568 0.779568
0.779706 0.779706 0.779706
0.779843 0.779843 0.779843
0.779980 0.779980 0.779980
0.780102 0.780102 0.780102
0.780240 0.780240 0.780240
0.780377 0.780377 0.780377
0.780499 0.780499 0.780499
0.780636 0.780636 0.780636
0.780774 0.780774 0.780774
0.780896 0.780896 0.780896
0.781033 0.781033 0.781033
0.781170 0.781170 0.781170
0.781292 0.781292 0.781292
0.781430 0.781430 0.781430
0.781552 0.781552 0.781552
0.781689 0.781689 0.781689
0.781827 0.781827 0.781827
0.781949 0.781949 0.781949
0.782086 0.782086 0.782086
0.782208 0.782208 0.782208
0.782345 0.782345 0.782345
0.782467 0.782467 0.782467
0.782605 0.782605 0.782605
0.782727 0.782727 0.782727
0.782864 0.782864 0.782864
0.782986 0.782986 0.782986
0.783124 0.783124 0.783124
0.783246 0.783246 0.783246
0.783383 0.783383 0.783383
0.783505 0.783505 0.783505
0.783642 0.783642 0.783642
0.783764 0.783764 0.783764
0.783886 0.783886 0.783886
0.784024 0.784024 0.784024
0.784146 0.784146 0.784146
0.784283 0.784283 0.784283
0.784405 0.784405 0.784405
0.784527 0.784527 0.784527
0.784665 0.784665 0.784665
0.784787 0.784787 0.784787
0.784909 0.784909 0.784909
0.785046 0.785046 0.785046
0.785168 0.785168 0.785168
0.785290 0.785290 0.785290
0.785428 0.785428 0.785428
0.785550 0.785550 0.785550
0.785672 0.785672 0.785672
0.785794 0.785794 0.785794
0.785931 0.785931 0.785931
0.786053 0.786053 0.786053
0.786175 0.786175 0.786175
0.786297 0.786297 0.786297
0.786435 0.786435 0.786435
0.786557 0.786557 0.786557
0.786679 0.786679 0.786679
0.786801 0.786801 0.786801
0.786923 0.786923 0.786923
0.787045 0.787045 0.787045
0.787182 0.787182 0.787182
0.787304 0.787304 0.787304
0.787427 0.787427 0.787427
0.787549 0.787549 0.787549
0.787671 0.787671 0.787671
0.787793 0.787793 0.787793
0.787915 0.787915 0.787915
0.788037 0.788037 0.788037
0.788174 0.788174 0.788174
0.788296 0.788296 0.788296
