training-luts/ARRI_logc2linear_EI800.cube
LUT_1D_SIZE 4096

0.003433 0.003433 0.003433
0.003433 0.003433 0.003433
0.003433 0.003433 0.003433
0.003433 0.003433 0.003433
0.003433 0.003433 0.003433
0.003433 0.003433 0.003433
0.003433 0.003433 0.003433
0.003433 0.003433 0.003433
0.003433 0.003433 0.003433
0.003433 0.003433 0.003433
0.003433 0.003433 0.003433
0.003433 0.003433 0.003433
0.003449 0.003449 0.003449
0.003449 0.003449 0.003449
0.003449 0.003449 0.003449
0.003449 0.003449 0.003449
0.003449 0.003449 0.003449
0.003449 0.003449 0.003449
0.003449 0.003449 0.003449
0.003449 0.003449 0.003449
0.003449 0.003449 0.003449
0.003449 0.003449 0.003449
0.003449 0.003449 0.003449
0.003449 0.003449 0.003449
0.003464 0.003464 0.003464
0.003464 0.003464 0.003464
0.003464 0.003464 0.003464
0.003464 0.003464 0.003464
0.003464 0.003464 0.003464
0.003464 0.003464 0.003464
0.003464 0.003464 0.003464
0.003464 0.003464 0.003464
0.003464 0.003464 0.003464
0.003464 0.003464 0.003464
0.003464 0.003464 0.003464
0.003464 0.003464 0.003464
0.003479 0.003479 0.003479
0.003479 0.003479 0.003479
0.003479 0.003479 0.003479
0.003479 0.003479 0.003479
0.003479 0.003479 0.003479
0.003479 0.003479 0.003479
0.003479 0.003479 0.003479
0.003479 0.003479 0.003479
0.003479 0.003479 0.003479
0.003479 0.003479 0.003479
0.003479 0.003479 0.003479
0.003479 0.003479 0.003479
0.003494 0.003494 0.003494
0.003494 0.003494 0.003494
0.003494 0.003494 0.003494
0.003494 0.003494 0.003494
0.003494 0.003494 0.003494
0.003494 0.003494 0.003494
0.003494 0.003494 0.003494
0.003494 0.003494 0.003494
0.003494 0.003494 0.003494
0.003494 0.003494 0.003494
0.003494 0.003494 0.003494
0.003494 0.003494 0.003494
0.003510 0.003510 0.003510
0.003510 0.003510 0.003510
0.003510 0.003510 0.003510
0.003510 0.003510 0.003510
0.003510 0.003510 0.003510
0.003510 0.003510 0.003510
0.003510 0.003510 0.003510
0.003510 0.003510 0.003510
0.003510 0.003510 0.003510
0.003510 0.003510 0.003510
0.003510 0.003510 0.003510
0.003510 0.003510 0.003510
0.003525 0.003525 0.003525
0.003525 0.003525 0.003525
0.003525 0.003525 0.003525
0.003525 0.003525 0.003525
0.003525 0.003525 0.003525
0.003525 0.003525 0.003525
0.003525 0.003525 0.003525
0.003525 0.003525 0.003525
0.003525 0.003525 0.003525
0.003525 0.003525 0.003525
0.003525 0.003525 0.003525
0.003525 0.003525 0.003525
0.003540 0.003540 0.003540
0.003540 0.003540 0.003540
0.003540 0.003540 0.003540
0.003540 0.003540 0.003540
0.003540 0.003540 0.003540
0.003540 0.003540 0.003540
0.003540 0.003540 0.003540
0.003540 0.003540 0.003540
0.003540 0.003540 0.003540
0.003540 0.003540 0.003540
0.003540 0.003540 0.003540
0.003540 0.003540 0.003540
0.003555 0.003555 0.003555
0.003555 0.003555 0.003555
0.003555 0.003555 0.003555
0.003555 0.003555 0.003555
0.003555 0.003555 0.003555
0.003555 0.003555 0.003555
0.003555 0.003555 0.003555
0.003555 0.003555 0.003555
0.003555 0.003555 0.003555
0.003555 0.003555 0.003555
0.003555 0.003555 0.003555
0.003555 0.003555 0.003555
0.003571 0.003571 0.003571
0.003571 0.003571 0.003571
0.003571 0.003571 0.003571
0.003571 0.003571 0.003571
0.003571 0.003571 0.003571
0.003571 0.003571 0.003571
0.003571 0.003571 0.003571
0.003571 0.003571 0.003571
0.003571 0.003571 0.003571
0.003571 0.003571 0.003571
0.003571 0.003571 0.003571
0.003571 0.003571 0.003571
0.003586 0.003586 0.003586
0.003586 0.003586 0.003586
0.003586 0.003586 0.003586
0.003586 0.003586 0.003586
0.003586 0.003586 0.003586
0.003586 0.003586 0.003586
0.003586 0.003586 0.003586
0.003586 0.003586 0.003586
0.003586 0.003586 0.003586
0.003586 0.003586 0.003586
0.003586 0.003586 0.003586
0.003586 0.003586 0.003586
0.003601 0.003601 0.003601
0.003601 0.003601 0.003601
0.003601 0.003601 0.003601
0.003601 0.003601 0.003601
0.003601 0.003601 0.003601
0.003601 0.003601 0.003601
0.003601 0.003601 0.003601
0.003601 0.003601 0.003601
0.003601 0.003601 0.003601
0.003601 0.003601 0.003601
0.003601 0.003601 0.003601
0.003601 0.003601 0.003601
0.003616 0.003616 0.003616
0.003616 0.003616 0.003616
0.003616 0.003616 0.003616
0.003616 0.003616 0.003616
0.003616 0.003616 0.003616
0.003616 0.003616 0.003616
0.003616 0.003616 0.003616
0.003616 0.003616 0.003616
0.003616 0.003616 0.003616
0.003616 0.003616 0.003616
0.003616 0.003616 0.003616
0.003616 0.003616 0.003616
0.003632 0.003632 0.003632
0.003632 0.003632 0.003632
0.003632 0.003632 0.003632
0.003632 0.003632 0.003632
0.003632 0.003632 0.003632
0.003632 0.003632 0.003632
0.003632 0.003632 0.003632
0.003632 0.003632 0.003632
0.003632 0.003632 0.003632
0.003632 0.003632 0.003632
0.003632 0.003632 0.003632
0.003632 0.003632 0.003632
0.003632 0.003632 0.003632
0.003647 0.003647 0.003647
0.003647 0.003647 0.003647
0.003647 0.003647 0.003647
0.003647 0.003647 0.003647
0.003647 0.003647 0.003647
0.003647 0.003647 0.003647
0.003647 0.003647 0.003647
0.003647 0.003647 0.003647
0.003647 0.003647 0.003647
0.003647 0.003647 0.003647
0.003647 0.003647 0.003647
0.003647 0.003647 0.003647
0.003662 0.003662 0.003662
0.003662 0.003662 0.003662
0.003662 0.003662 0.003662
0.003662 0.003662 0.003662
0.003662 0.003662 0.003662
0.003662 0.003662 0.003662
0.003662 0.003662 0.003662
0.003662 0.003662 0.003662
0.003662 0.003662 0.003662
0.003662 0.003662 0.003662
0.003662 0.003662 0.003662
0.003662 0.003662 0.003662
0.003677 0.003677 0.003677
0.003677 0.003677 0.003677
0.003677 0.003677 0.003677
0.003677 0.003677 0.003677
0.003677 0.003677 0.003677
0.003677 0.003677 0.003677
0.003677 0.003677 0.003677
0.003677 0.003677 0.003677
0.003677 0.003677 0.003677
0.003677 0.003677 0.003677
0.003677 0.003677 0.003677
0.003677 0.003677 0.003677
0.003693 0.003693 0.003693
0.003693 0.003693 0.003693
0.003693 0.003693 0.003693
0.003693 0.003693 0.003693
0.003693 0.003693 0.003693
0.003693 0.003693 0.003693
0.003693 0.003693 0.003693
0.003693 0.003693 0.003693
0.003693 0.003693 0.003693
0.003693 0.003693 0.003693
0.003693 0.003693 0.003693
0.003693 0.003693 0.003693
0.003708 0.003708 0.003708
0.003708 0.003708 0.003708
0.003708 0.003708 0.003708
0.003708 0.003708 0.003708
0.003708 0.003708 0.003708
0.003708 0.003708 0.003708
0.003708 0.003708 0.003708
0.003708 0.003708 0.003708
0.003708 0.003708 0.003708
0.003708 0.003708 0.003708
0.003708 0.003708 0.003708
0.003708 0.003708 0.003708
0.003723 0.003723 0.003723
0.003723 0.003723 0.003723
0.003723 0.003723 0.003723
0.003723 0.003723 0.003723
0.003723 0.003723 0.003723
0.003723 0.003723 0.003723
0.003723 0.003723 0.003723
0.003723 0.003723 0.003723
0.003723 0.003723 0.003723
0.003723 0.003723 0.003723
0.003723 0.003723 0.003723
0.003723 0.003723 0.003723
0.003738 0.003738 0.003738
0.003738 0.003738 0.003738
0.003738 0.003738 0.003738
0.003738 0.003738 0.003738
0.003738 0.003738 0.003738
0.003738 0.003738 0.003738
0.003738 0.003738 0.003738
0.003738 0.003738 0.003738
0.003738 0.003738 0.003738
0.003738 0.003738 0.003738
0.003738 0.003738 0.003738
0.003738 0.003738 0.003738
0.003754 0.003754 0.003754
0.003754 0.003754 0.003754
0.003754 0.003754 0.003754
0.003754 0.003754 0.003754
0.003754 0.003754 0.003754
0.003754 0.003754 0.003754
0.003754 0.003754 0.003754
0.003754 0.003754 0.003754
0.003754 0.003754 0.003754
0.003754 0.003754 0.003754
0.003754 0.003754 0.003754
0.003754 0.003754 0.003754
0.003769 0.003769 0.003769
0.003769 0.003769 0.003769
0.003769 0.003769 0.003769
0.003769 0.003769 0.003769
0.003769 0.003769 0.003769
0.003769 0.003769 0.003769
0.003769 0.003769 0.003769
0.003769 0.003769 0.003769
0.003769 0.003769 0.003769
0.003769 0.003769 0.003769
0.003769 0.003769 0.003769
0.003769 0.003769 0.003769
0.003784 0.003784 0.003784
0.003784 0.003784 0.003784
0.003784 0.003784 0.003784
0.003784 0.003784 0.003784
0.003784 0.003784 0.003784
0.003784 0.003784 0.003784
0.003784 0.003784 0.003784
0.003784 0.003784 0.003784
0.003784 0.003784 0.003784
0.003784 0.003784 0.003784
0.003784 0.003784 0.003784
0.003784 0.003784 0.003784
0.003799 0.003799 0.003799
0.003799 0.003799 0.003799
0.003799 0.003799 0.003799
0.003799 0.003799 0.003799
0.003799 0.003799 0.003799
0.003799 0.003799 0.003799
0.003799 0.003799 0.003799
0.003799 0.003799 0.003799
0.003799 0.003799 0.003799
0.003799 0.003799 0.003799
0.003799 0.003799 0.003799
0.003799 0.003799 0.003799
0.003815 0.003815 0.003815
0.003815 0.003815 0.003815
0.003815 0.003815 0.003815
0.003815 0.003815 0.003815
0.003815 0.003815 0.003815
0.003815 0.003815 0.003815
0.003815 0.003815 0.003815
0.003815 0.003815 0.003815
0.003815 0.003815 0.003815
0.003815 0.003815 0.003815
0.003815 0.003815 0.003815
0.003815 0.003815 0.003815
0.003830 0.003830 0.003830
0.003830 0.003830 0.003830
0.003830 0.003830 0.003830
0.003830 0.003830 0.003830
0.003830 0.003830 0.003830
0.003830 0.003830 0.003830
0.003830 0.003830 0.003830
0.003830 0.003830 0.003830
0.003830 0.003830 0.003830
0.003830 0.003830 0.003830
0.003830 0.003830 0.003830
0.003830 0.003830 0.003830
0.003830 0.003830 0.003830
0.003845 0.003845 0.003845
0.003845 0.003845 0.003845
0.003845 0.003845 0.003845
0.003845 0.003845 0.003845
0.003845 0.003845 0.003845
0.003845 0.003845 0.003845
0.003845 0.003845 0.003845
0.003845 0.003845 0.003845
0.003845 0.003845 0.003845
0.003845 0.003845 0.003845
0.003845 0.003845 0.003845
0.003845 0.003845 0.003845
0.003861 0.003861 0.003861
0.003861 0.003861 0.003861
0.003861 0.003861 0.003861
0.003861 0.003861 0.003861
0.003861 0.003861 0.003861
0.003861 0.003861 0.003861
0.003861 0.003861 0.003861
0.003861 0.003861 0.003861
0.003861 0.003861 0.003861
0.003861 0.003861 0.003861
0.003861 0.003861 0.003861
0.003861 0.003861 0.003861
0.003876 0.003876 0.003876
0.003876 0.003876 0.003876
0.003876 0.003876 0.003876
0.003876 0.003876 0.003876
0.003876 0.003876 0.003876
0.003876 0.003876 0.003876
0.003876 0.003876 0.003876
0.003876 0.003876 0.003876
0.003876 0.003876 0.003876
0.003876 0.003876 0.003876
0.003876 0.003876 0.003876
0.003876 0.003876 0.003876
0.003891 0.003891 0.003891
0.003891 0.003891 0.003891
0.003891 0.003891 0.003891
0.003891 0.003891 0.003891
0.003891 0.003891 0.003891
0.003891 0.003891 0.003891
0.003891 0.003891 0.003891
0.003891 0.003891 0.003891
0.003891 0.003891 0.003891
0.003891 0.003891 0.003891
0.003891 0.003891 0.003891
0.003891 0.003891 0.003891
0.003906 0.003906 0.003906
0.003906 0.003906 0.003906
0.003906 0.003906 0.003906
0.003906 0.003906 0.003906
0.003906 0.003906 0.003906
0.003906 0.003906 0.003906
0.003906 0.003906 0.003906
0.003906 0.003906 0.003906
0.003906 0.003906 0.003906
0.003906 0.003906 0.003906
0.003906 0.003906 0.003906
0.003906 0.003906 0.003906
0.003922 0.003922 0.003922
0.003922 0.003922 0.003922
0.003922 0.003922 0.003922
0.003922 0.003922 0.003922
0.003922 0.003922 0.003922
0.003922 0.003922 0.003922
0.003922 0.003922 0.003922
0.003922 0.003922 0.003922
0.003922 0.003922 0.003922
0.003922 0.003922 0.003922
0.003922 0.003922 0.003922
0.003922 0.003922 0.003922
0.003937 0.003937 0.003937
0.003937 0.003937 0.003937
0.003937 0.003937 0.003937
0.003937 0.003937 0.003937
0.003937 0.003937 0.003937
0.003937 0.003937 0.003937
0.003937 0.003937 0.003937
0.003937 0.003937 0.003937
0.003937 0.003937 0.003937
0.003937 0.003937 0.003937
0.003937 0.003937 0.003937
0.003937 0.003937 0.003937
0.003952 0.003952 0.003952
0.003952 0.003952 0.003952
0.003952 0.003952 0.003952
0.003952 0.003952 0.003952
0.003952 0.003952 0.003952
0.003952 0.003952 0.003952
0.003952 0.003952 0.003952
0.003952 0.003952 0.003952
0.003952 0.003952 0.003952
0.003952 0.003952 0.003952
0.003952 0.003952 0.003952
0.003952 0.003952 0.003952
0.003967 0.003967 0.003967
0.003967 0.003967 0.003967
0.003967 0.003967 0.003967
0.003967 0.003967 0.003967
0.003967 0.003967 0.003967
0.003967 0.003967 0.003967
0.003967 0.003967 0.003967
0.003967 0.003967 0.003967
0.003967 0.003967 0.003967
0.003967 0.003967 0.003967
0.003967 0.003967 0.003967
0.003967 0.003967 0.003967
0.003983 0.003983 0.003983
0.003983 0.003983 0.003983
0.003983 0.003983 0.003983
0.003983 0.003983 0.003983
0.003983 0.003983 0.003983
0.003983 0.003983 0.003983
0.003983 0.003983 0.003983
0.003983 0.003983 0.003983
0.003983 0.003983 0.003983
0.003983 0.003983 0.003983
0.003983 0.003983 0.003983
0.003983 0.003983 0.003983
0.003998 0.003998 0.003998
0.003998 0.003998 0.003998
0.003998 0.003998 0.003998
0.003998 0.003998 0.003998
0.003998 0.003998 0.003998
0.003998 0.003998 0.003998
0.003998 0.003998 0.003998
0.003998 0.003998 0.003998
0.003998 0.003998 0.003998
0.003998 0.003998 0.003998
0.003998 0.003998 0.003998
0.003998 0.003998 0.003998
0.004013 0.004013 0.004013
0.004013 0.004013 0.004013
0.004013 0.004013 0.004013
0.004013 0.004013 0.004013
0.004013 0.004013 0.004013
0.004013 0.004013 0.004013
0.004013 0.004013 0.004013
0.004013 0.004013 0.004013
0.004013 0.004013 0.004013
0.004013 0.004013 0.004013
0.004013 0.004013 0.004013
0.004013 0.004013 0.004013
0.004028 0.004028 0.004028
0.004028 0.004028 0.004028
0.004028 0.004028 0.004028
0.004028 0.004028 0.004028
0.004028 0.004028 0.004028
0.004028 0.004028 0.004028
0.004028 0.004028 0.004028
0.004028 0.004028 0.004028
0.004028 0.004028 0.004028
0.004028 0.004028 0.004028
0.004028 0.004028 0.004028
0.004028 0.004028 0.004028
0.004044 0.004044 0.004044
0.004044 0.004044 0.004044
0.004044 0.004044 0.004044
0.004044 0.004044 0.004044
0.004044 0.004044 0.004044
0.004044 0.004044 0.004044
0.004044 0.004044 0.004044
0.004044 0.004044 0.004044
0.004044 0.004044 0.004044
0.004044 0.004044 0.004044
0.004044 0.004044 0.004044
0.004044 0.004044 0.004044
0.004044 0.004044 0.004044
0.004059 0.004059 0.004059
0.004059 0.004059 0.004059
0.004059 0.004059 0.004059
0.004059 0.004059 0.004059
0.004059 0.004059 0.004059
0.004059 0.004059 0.004059
0.004059 0.004059 0.004059
0.004059 0.004059 0.004059
0.004059 0.004059 0.004059
0.004059 0.004059 0.004059
0.004059 0.004059 0.004059
0.004059 0.004059 0.004059
0.004074 0.004074 0.004074
0.004074 0.004074 0.004074
0.004074 0.004074 0.004074
0.004074 0.004074 0.004074
0.004074 0.004074 0.004074
0.004074 0.004074 0.004074
0.004074 0.004074 0.004074
0.004074 0.004074 0.004074
0.004074 0.004074 0.004074
0.004074 0.004074 0.004074
0.004074 0.004074 0.004074
0.004074 0.004074 0.004074
0.004089 0.004089 0.004089
0.004089 0.004089 0.004089
0.004089 0.004089 0.004089
0.004089 0.004089 0.004089
0.004089 0.004089 0.004089
0.004089 0.004089 0.004089
0.004089 0.004089 0.004089
0.004089 0.004089 0.004089
0.004089 0.004089 0.004089
0.004089 0.004089 0.004089
0.004089 0.004089 0.004089
0.004089 0.004089 0.004089
0.004105 0.004105 0.004105
0.004105 0.004105 0.004105
0.004105 0.004105 0.004105
0.004105 0.004105 0.004105
0.004105 0.004105 0.004105
0.004105 0.004105 0.004105
0.004105 0.004105 0.004105
0.004105 0.004105 0.004105
0.004105 0.004105 0.004105
0.004105 0.004105 0.004105
0.004105 0.004105 0.004105
0.004105 0.004105 0.004105
0.004120 0.004120 0.004120
0.004120 0.004120 0.004120
0.004120 0.004120 0.004120
0.004120 0.004120 0.004120
0.004120 0.004120 0.004120
0.004120 0.004120 0.004120
0.004120 0.004120 0.004120
0.004120 0.004120 0.004120
0.004120 0.004120 0.004120
0.004120 0.004120 0.004120
0.004120 0.004120 0.004120
0.004120 0.004120 0.004120
0.004135 0.004135 0.004135
0.004135 0.004135 0.004135
0.004135 0.004135 0.004135
0.004135 0.004135 0.004135
0.004135 0.004135 0.004135
0.004135 0.004135 0.004135
0.004135 0.004135 0.004135
0.004135 0.004135 0.004135
0.004135 0.004135 0.004135
0.004135 0.004135 0.004135
0.004135 0.004135 0.004135
0.004135 0.004135 0.004135
0.004150 0.004150 0.004150
0.004150 0.004150 0.004150
0.004150 0.004150 0.004150
0.004150 0.004150 0.004150
0.004150 0.004150 0.004150
0.004150 0.004150 0.004150
0.004150 0.004150 0.004150
0.004150 0.004150 0.004150
0.004150 0.004150 0.004150
0.004150 0.004150 0.004150
0.004150 0.004150 0.004150
0.004150 0.004150 0.004150
0.004166 0.004166 0.004166
0.004166 0.004166 0.004166
0.004166 0.004166 0.004166
0.004166 0.004166 0.004166
0.004166 0.004166 0.004166
0.004166 0.004166 0.004166
0.004166 0.004166 0.004166
0.004166 0.004166 0.004166
0.004166 0.004166 0.004166
0.004166 0.004166 0.004166
0.004166 0.004166 0.004166
0.004166 0.004166 0.004166
0.004181 0.004181 0.004181
0.004181 0.004181 0.004181
0.004181 0.004181 0.004181
0.004181 0.004181 0.004181
0.004181 0.004181 0.004181
0.004181 0.004181 0.004181
0.004181 0.004181 0.004181
0.004181 0.004181 0.004181
0.004181 0.004181 0.004181
0.004181 0.004181 0.004181
0.004181 0.004181 0.004181
0.004181 0.004181 0.004181
0.004196 0.004196 0.004196
0.004196 0.004196 0.004196
0.004196 0.004196 0.004196
0.004196 0.004196 0.004196
0.004196 0.004196 0.004196
0.004196 0.004196 0.004196
0.004196 0.004196 0.004196
0.004196 0.004196 0.004196
0.004196 0.004196 0.004196
0.004196 0.004196 0.004196
0.004196 0.004196 0.004196
0.004196 0.004196 0.004196
0.004211 0.004211 0.004211
0.004211 0.004211 0.004211
0.004211 0.004211 0.004211
0.004211 0.004211 0.004211
0.004211 0.004211 0.004211
0.004211 0.004211 0.004211
0.004211 0.004211 0.004211
0.004211 0.004211 0.004211
0.004211 0.004211 0.004211
0.004211 0.004211 0.004211
0.004211 0.004211 0.004211
0.004211 0.004211 0.004211
0.004227 0.004227 0.004227
0.004227 0.004227 0.004227
0.004227 0.004227 0.004227
0.004227 0.004227 0.004227
0.004227 0.004227 0.004227
0.004227 0.004227 0.004227
0.004227 0.004227 0.004227
0.004227 0.004227 0.004227
0.004227 0.004227 0.004227
0.004227 0.004227 0.004227
0.004227 0.004227 0.004227
0.004227 0.004227 0.004227
0.004242 0.004242 0.004242
0.004242 0.004242 0.004242
0.004242 0.004242 0.004242
0.004242 0.004242 0.004242
0.004242 0.004242 0.004242
0.004242 0.004242 0.004242
0.004242 0.004242 0.004242
0.004242 0.004242 0.004242
0.004242 0.004242 0.004242
0.004242 0.004242 0.004242
0.004242 0.004242 0.004242
0.004257 0.004257 0.004257
0.004257 0.004257 0.004257
0.004257 0.004257 0.004257
0.004257 0.004257 0.004257
0.004257 0.004257 0.004257
0.004257 0.004257 0.004257
0.004257 0.004257 0.004257
0.004257 0.004257 0.004257
0.004257 0.004257 0.004257
0.004257 0.004257 0.004257
0.004257 0.004257 0.004257
0.004273 0.004273 0.004273
0.004273 0.004273 0.004273
0.004273 0.004273 0.004273
0.004273 0.004273 0.004273
0.004273 0.004273 0.004273
0.004273 0.004273 0.004273
0.004273 0.004273 0.004273
0.004273 0.004273 0.004273
0.004273 0.004273 0.004273
0.004273 0.004273 0.004273
0.004273 0.004273 0.004273
0.004288 0.004288 0.004288
0.004288 0.004288 0.004288
0.004288 0.004288 0.004288
0.004288 0.004288 0.004288
0.004288 0.004288 0.004288
0.004288 0.004288 0.004288
0.004288 0.004288 0.004288
0.004288 0.004288 0.004288
0.004288 0.004288 0.004288
0.004288 0.004288 0.004288
0.004303 0.004303 0.004303
0.004303 0.004303 0.004303
0.004303 0.004303 0.004303
0.004303 0.004303 0.004303
0.004303 0.004303 0.004303
0.004303 0.004303 0.004303
0.004303 0.004303 0.004303
0.004303 0.004303 0.004303
0.004303 0.004303 0.004303
0.004303 0.004303 0.004303
0.004318 0.004318 0.004318
0.004318 0.004318 0.004318
0.004318 0.004318 0.004318
0.004318 0.004318 0.004318
0.004318 0.004318 0.004318
0.004318 0.004318 0.004318
0.004318 0.004318 0.004318
0.004318 0.004318 0.004318
0.004318 0.004318 0.004318
0.004318 0.004318 0.004318
0.004334 0.004334 0.004334
0.004334 0.004334 0.004334
0.004334 0.004334 0.004334
0.004334 0.004334 0.004334
0.004334 0.004334 0.004334
0.004334 0.004334 0.004334
0.004334 0.004334 0.004334
0.004334 0.004334 0.004334
0.004334 0.004334 0.004334
0.004334 0.004334 0.004334
0.004349 0.004349 0.004349
0.004349 0.004349 0.004349
0.004349 0.004349 0.004349
0.004349 0.004349 0.004349
0.004349 0.004349 0.004349
0.004349 0.004349 0.004349
0.004349 0.004349 0.004349
0.004349 0.004349 0.004349
0.004349 0.004349 0.004349
0.004349 0.004349 0.004349
0.004364 0.004364 0.004364
0.004364 0.004364 0.004364
0.004364 0.004364 0.004364
0.004364 0.004364 0.004364
0.004364 0.004364 0.004364
0.004364 0.004364 0.004364
0.004364 0.004364 0.004364
0.004364 0.004364 0.004364
0.004364 0.004364 0.004364
0.004379 0.004379 0.004379
0.004379 0.004379 0.004379
0.004379 0.004379 0.004379
0.004379 0.004379 0.004379
0.004379 0.004379 0.004379
0.004379 0.004379 0.004379
0.004379 0.004379 0.004379
0.004379 0.004379 0.004379
0.004379 0.004379 0.004379
0.004395 0.004395 0.004395
0.004395 0.004395 0.004395
0.004395 0.004395 0.004395
0.004395 0.004395 0.004395
0.004395 0.004395 0.004395
0.004395 0.004395 0.004395
0.004395 0.004395 0.004395
0.004395 0.004395 0.004395
0.004395 0.004395 0.004395
0.004410 0.004410 0.004410
0.004410 0.004410 0.004410
0.004410 0.004410 0.004410
0.004410 0.004410 0.004410
0.004410 0.004410 0.004410
0.004410 0.004410 0.004410
0.004410 0.004410 0.004410
0.004410 0.004410 0.004410
0.004410 0.004410 0.004410
0.004425 0.004425 0.004425
0.004425 0.004425 0.004425
0.004425 0.004425 0.004425
0.004425 0.004425 0.004425
0.004425 0.004425 0.004425
0.004425 0.004425 0.004425
0.004425 0.004425 0.004425
0.004425 0.004425 0.004425
0.004440 0.004440 0.004440
0.004440 0.004440 0.004440
0.004440 0.004440 0.004440
0.004440 0.004440 0.004440
0.004440 0.004440 0.004440
0.004440 0.004440 0.004440
0.004440 0.004440 0.004440
0.004440 0.004440 0.004440
0.004440 0.004440 0.004440
0.004456 0.004456 0.004456
0.004456 0.004456 0.004456
0.004456 0.004456 0.004456
0.004456 0.004456 0.004456
0.004456 0.004456 0.004456
0.004456 0.004456 0.004456
0.004456 0.004456 0.004456
0.004456 0.004456 0.004456
0.004471 0.004471 0.004471
0.004471 0.004471 0.004471
0.004471 0.004471 0.004471
0.004471 0.004471 0.004471
0.004471 0.004471 0.004471
0.004471 0.004471 0.004471
0.004471 0.004471 0.004471
0.004471 0.004471 0.004471
0.004486 0.004486 0.004486
0.004486 0.004486 0.004486
0.004486 0.004486 0.004486
0.004486 0.004486 0.004486
0.004486 0.004486 0.004486
0.004486 0.004486 0.004486
0.004486 0.004486 0.004486
0.004486 0.004486 0.004486
0.004501 0.004501 0.004501
0.004501 0.004501 0.004501
0.004501 0.004501 0.004501
0.004501 0.004501 0.004501
0.004501 0.004501 0.004501
0.004501 0.004501 0.004501
0.004501 0.004501 0.004501
0.004501 0.004501 0.004501
0.004517 0.004517 0.004517
0.004517 0.004517 0.004517
0.004517 0.004517 0.004517
0.004517 0.004517 0.004517
0.004517 0.004517 0.004517
0.004517 0.004517 0.004517
0.004517 0.004517 0.004517
0.004517 0.004517 0.004517
0.004532 0.004532 0.004532
0.004532 0.004532 0.004532
0.004532 0.004532 0.004532
0.004532 0.004532 0.004532
0.004532 0.004532 0.004532
0.004532 0.004532 0.004532
0.004532 0.004532 0.004532
0.004547 0.004547 0.004547
0.004547 0.004547 0.004547
0.004547 0.004547 0.004547
0.004547 0.004547 0.004547
0.004547 0.004547 0.004547
0.004547 0.004547 0.004547
0.004547 0.004547 0.004547
0.004547 0.004547 0.004547
0.004562 0.004562 0.004562
0.004562 0.004562 0.004562
0.004562 0.004562 0.004562
0.004562 0.004562 0.004562
0.004562 0.004562 0.004562
0.004562 0.004562 0.004562
0.004562 0.004562 0.004562
0.004578 0.004578 0.004578
0.004578 0.004578 0.004578
0.004578 0.004578 0.004578
0.004578 0.004578 0.004578
0.004578 0.004578 0.004578
0.004578 0.004578 0.004578
0.004578 0.004578 0.004578
0.004593 0.004593 0.004593
0.004593 0.004593 0.004593
0.004593 0.004593 0.004593
0.004593 0.004593 0.004593
0.004593 0.004593 0.004593
0.004593 0.004593 0.004593
0.004593 0.004593 0.004593
0.004608 0.004608 0.004608
0.004608 0.004608 0.004608
0.004608 0.004608 0.004608
0.004608 0.004608 0.004608
0.004608 0.004608 0.004608
0.004608 0.004608 0.004608
0.004608 0.004608 0.004608
0.004623 0.004623 0.004623
0.004623 0.004623 0.004623
0.004623 0.004623 0.004623
0.004623 0.004623 0.004623
0.004623 0.004623 0.004623
0.004623 0.004623 0.004623
0.004623 0.004623 0.004623
0.004639 0.004639 0.004639
0.004639 0.004639 0.004639
0.004639 0.004639 0.004639
0.004639 0.004639 0.004639
0.004639 0.004639 0.004639
0.004639 0.004639 0.004639
0.004639 0.004639 0.004639
0.004654 0.004654 0.004654
0.004654 0.004654 0.004654
0.004654 0.004654 0.004654
0.004654 0.004654 0.004654
0.004654 0.004654 0.004654
0.004654 0.004654 0.004654
0.004654 0.004654 0.004654
0.004669 0.004669 0.004669
0.004669 0.004669 0.004669
0.004669 0.004669 0.004669
0.004669 0.004669 0.004669
0.004669 0.004669 0.004669
0.004669 0.004669 0.004669
0.004685 0.004685 0.004685
0.004685 0.004685 0.004685
0.004685 0.004685 0.004685
